svgs/taco_bell.svg

<svg width="192" height="192" viewBox="0 0 192 192" fill="none" xmlns="http://www.w3.org/2000/svg">
<path d="M116.484 147.935C145.199 131.363 163.693 109.647 157.792 99.4312C151.892 89.215 123.83 94.367 95.1146 110.938C66.3995 127.51 47.905 149.226 53.8058 159.442C59.7067 169.658 87.7685 164.506 116.484 147.935ZM116.484 147.935C153.959 126.307 177.05 96.1551 168.058 80.5876C164.842 75.0192 157.956 72.0711 148.723 71.571C129.635 40.0833 96.7708 23.4917 68.3662 28.8862C61.9764 23.6165 53.2581 22.3438 46.2712 26.376C39.2843 30.4081 36.0279 38.5913 37.3986 46.7576C18.5225 68.6487 16.4653 105.394 34.2023 137.661M116.484 147.935C79.008 169.562 41.3387 174.474 32.3468 158.907C29.1305 153.338 30.019 145.904 34.2023 137.661M34.2023 137.661C41.7142 122.859 59.8505 105.451 83.9214 91.5596" stroke="black" stroke-width="12" stroke-linecap="round" stroke-linejoin="round"/>
<path d="M103.206 109.967C108.333 117.351 105.565 128.14 97.0231 134.065C88.4817 139.99 77.4016 138.808 72.2749 131.424" stroke="black" stroke-width="10"/>
</svg>

<svg xmlns="http://www.w3.org/2000/svg" width="192" height="192" fill="none" viewBox="0 0 192 192"><path stroke="#000" stroke-linecap="round" stroke-linejoin="round" stroke-width="12" d="M116.484 147.935c28.715-16.572 47.209-38.288 41.308-48.504-5.9-10.216-33.962-5.064-62.677 11.507-28.715 16.572-47.21 38.288-41.31 48.504 5.902 10.216 33.964 5.064 62.679-11.507m0 0c37.475-21.628 60.566-51.78 51.574-67.347-3.216-5.569-10.102-8.517-19.335-9.017-19.088-31.488-51.952-48.08-80.357-42.685-6.39-5.27-15.108-6.542-22.095-2.51S36.028 38.591 37.4 46.758c-18.876 21.89-20.934 58.636-3.197 90.903m82.282 10.274c-37.476 21.627-75.145 26.539-84.137 10.972-3.216-5.569-2.328-13.003 1.855-21.246m0 0c7.512-14.802 25.649-32.21 49.72-46.101"/><path stroke="#000" stroke-width="10" d="M103.206 109.967c5.127 7.384 2.359 18.173-6.183 24.098s-19.621 4.743-24.748-2.641"/></svg>
